X:1
T:Thy Word, O Lord
T:A. F. Myers
T:Thy Word, O Lord
T:Public Domain
T:Public Domain
T:Public Domain
C:A. F. Myers
Z:Public Domain
%%score ( 1 2 ) ( 3 4 )
L:1/8
M:12/8
K:G
V:1 treble 
V:2 treble 
V:3 bass 
V:4 bass 
V:1
 [G,B,]"^Duet—Soprano and Alto" [A,C]2 [^A,^C] | [B,D]8 [DB] [CA]2 [B,G] | %2
w: 1.~Thy Word, O|Lord to us is|
w: 2.~O Je- sus,|Lord, teach us to|
 [A,F]8 [A,F] [A,F]2 [B,G] | [CA]8 [CA] [^C^A]2 [CA] | [DB]8 [GB] [GB]2 [Ac] | %5
w: sweet, A lamp to|guide our way- ward|feet, And light the|
w: pray; Help us to|serve Thee day by|day; And by Thy|
 [Bd]8 [eg] [df]2 [ce] | [Bd]8 [Bd] [Ac]2 [GB] | [Fd]8 [Ec] [DB]2 [CA] | %8
w: way that leads to|God, By wear- y|ones so oft- en|
w: Book of truth di-|vine, May we be|pure and whol- ly|
 [B,G]8 [B,G] [A,F]2 [B,G] | [CA]8 [CA] [^C^A]2 [CA] | [DB]8 [GB] [GB]2 [GB] | %11
w: trod. When sha- dows|fall, and life seems|drear, When dark- est|
w: Thine; O light of|life, O light of|love, The Spir- it’s|
 [FA]8 [EG] [DF]2 [^CE] | (B,4 B,2 C2) D [^CE]2 [=CF] | [B,G]8 [B,G] [CA]2 [DB] | %14
w: gloom sur- rounds us|here, * * Be Thou our|be Thou our stay,|
w: gift, sent from a-|bove, * * We’ll fol- low|Thou leadst the way,|
 [Ec]8 [eg] [df]2 [ce] | [Bd]8 [Bd] [Ac]2 [GB] | [Fd]8 [Ec] [DB]2 [CA] | [B,G]8 |] %18
w: And lead us in|the nar- row way,|The bless- èd way.||
w: And safe- ly reach|the realms of day,|The glor- ious day.||
V:2
 x4 | x12 | x12 | x12 | x12 | x12 | x12 | x12 | x12 | x12 | x12 | x12 | D8 x4 | x12 | x12 | x12 | %16
w: ||||||||||||guide,||||
w: ||||||||||||where||||
 x12 | x8 |] %18
w: ||
w: ||
V:3
 z4 | z2 ([G,,G,] [G,,G,]2 [G,,G,] [G,,G,]2) z4 | z2 (D, F,2 A, D,2) z4 | z2 (D, F,2 A, D,2) z4 | %4
 z2 ([G,,G,] [G,,G,]2 [G,,G,] [G,,G,]2) z4 | z2 (G, B,2 D G,2) z4 | z2 (G, B,2 D G,2) z4 | %7
 z2 (D, F,2 A, D,2) z4 | z2 (G,, B,,2 D, [G,,G,]2) z4 | z2 (D, F,2 A, D,2) z4 | %10
 z2 (G,, B,,2 D, G,2) z4 | z2 (A, _D2 D C2) z4 | (F,4 G,2 A,2) z4 | z2 (G, D,2 B,, G,,2) z4 | %14
 z2 (C, E,2 G, [C,C]2) z4 | z2 (G, B,2 D G,2) z4 | z2 (D, F,2 A, D,2) z4 | %17
 z2 ([G,,D,] [G,,D,]2 [G,,D,] [G,,D,]2) |] %18
V:4
 x4 | x12 | x12 | x12 | x12 | x12 | x12 | x12 | x12 | x12 | x12 | x12 | D,8 x4 | x12 | x12 | x12 | %16
 x12 | x8 |] %18

